Papirus/16x16/apps/mullvad.svg

<?xml version="1.0" encoding="UTF-8" standalone="no"?>
<svg
   xmlns:dc="http://purl.org/dc/elements/1.1/"
   xmlns:cc="http://creativecommons.org/ns#"
   xmlns:rdf="http://www.w3.org/1999/02/22-rdf-syntax-ns#"
   xmlns:svg="http://www.w3.org/2000/svg"
   xmlns="http://www.w3.org/2000/svg"
   width="16"
   height="16"
   viewBox="0 0 16 16"
   id="svg4437"
   version="1.1">
  <defs
     id="defs4439" />
  <metadata
     id="metadata4442">
    <rdf:RDF>
      <cc:Work
         rdf:about="">
        <dc:format>image/svg+xml</dc:format>
        <dc:type
           rdf:resource="http://purl.org/dc/dcmitype/StillImage" />
        <dc:title></dc:title>
      </cc:Work>
    </rdf:RDF>
  </metadata>
  <rect
     style="fill:#4e6275;fill-opacity:1"
     x="-16"
     y="-16"
     width="16"
     height="16"
     ry="8"
     rx="8"
     transform="matrix(0,-1,-1,0,0,0)"
     id="rect4203-4" />
  <path
     id="path4377"
     d="M 11,13 C 10.746974,11.907603 8.9061253,9.9765313 11,10 L 10.98807,9.5 C 11.988036,8.496566 13.466314,7.5380745 13.999984,6.3469003 13.999984,6.0396368 13.825295,5.9873686 13.364817,6 13.141134,6.00614 12.395531,5.99197 11.707902,6 10.46534,6.014509 10.003037,6 10.003037,6 c 0,0 -1.3761032,-0.1935362 -1.7720112,0.1194896 C 7.2297081,6.9111873 6.85678,7.0173585 6.0185063,7.296666 5.2374052,7.5569242 5.2,7.1855385 5.2,9.0428322 5.0305092,10.094291 4.7166498,12.065696 4,13 c 0,0 2.6679543,-0.0084 4,0 1,0 3,0 3,0 z"
     style="fill:#d2943b;fill-opacity:1" />
  <path
     id="path4363"
     d="M 6.5,4 C 5.3738121,4 4,5.1575609 4,6.5935015 4,7.21133 4.2166347,8.0064894 4.5765623,8.4525906 4.6558743,8.655834 4.573648,8.8241129 4.5714195,8.8689974 4.5637966,9.022122 4.8981172,9.0883843 5.79296,8.7994654 7.413562,8.1617651 8.4711181,7.2486797 9,6 L 10,6.00739 10,5.0000026 9,5 C 9,4.266809 7.6261879,4 6.5,4 Z"
     style="fill:#ffd548;fill-opacity:1" />
  <circle
     r="1"
     cy="6"
     cx="14"
     id="path4407"
     style="opacity:1;fill:#efc286;fill-opacity:1" />
  <path
     id="rect4268"
     d="m 8,9 c 1.4074147,0.031573 2,1 2,1 l -2,0 z"
     style="opacity:1;fill:#ffffff;fill-opacity:1" />
</svg>

<?xml version="1.0" encoding="UTF-8" standalone="no"?>
<svg id="svg4437" xmlns:rdf="http://www.w3.org/1999/02/22-rdf-syntax-ns#" xmlns="http://www.w3.org/2000/svg" height="16" width="16" version="1.1" xmlns:cc="http://creativecommons.org/ns#" viewBox="0 0 16 16" xmlns:dc="http://purl.org/dc/elements/1.1/">
 <metadata id="metadata4442">
  <rdf:RDF>
   <cc:Work rdf:about="">
    <dc:format>image/svg+xml</dc:format>
    <dc:type rdf:resource="http://purl.org/dc/dcmitype/StillImage"/>
    <dc:title/>
   </cc:Work>
  </rdf:RDF>
 </metadata>
 <rect id="rect4203-4" transform="matrix(0,-1,-1,0,0,0)" rx="8" ry="8" height="16" width="16" y="-16" x="-16" fill="#4e6275"/>
 <path id="path4377" fill="#d2943b" d="m11 13c-0.253-1.092-2.0939-3.0235 0-3l-0.012-0.5c1-1.0034 2.478-1.9619 3.012-3.1531 0-0.3073-0.175-0.3595-0.635-0.3469-0.224 0.0061-0.969-0.008-1.657 0-1.243 0.0145-1.705 0-1.705 0s-1.3761-0.19354-1.772 0.11949c-1.0013 0.7917-1.3742 0.8979-2.2125 1.1772-0.7811 0.2602-0.8185-0.1112-0.8185 1.7461-0.1695 1.0512-0.4834 3.0232-1.2 3.9572 0 0 2.668-0.0084 4 0h3z"/>
 <path id="path4363" fill="#ffd548" d="m6.5 4c-1.1262 0-2.5 1.1576-2.5 2.5935 0 0.6178 0.2166 1.413 0.5766 1.8591 0.0793 0.2032-0.003 0.3715-0.0052 0.4164-0.0076 0.1531 0.3267 0.2194 1.2216-0.0695 1.6206-0.6377 2.6781-1.5508 3.207-2.7995l1 0.0074v-1.0074h-1c0-0.7332-1.3738-1-2.5-1z"/>
 <circle id="path4407" cy="6" cx="14" r="1" fill="#efc286"/>
 <path id="rect4268" d="m8 9c1.4074 0.031573 2 1 2 1h-2z" fill="#fff"/>
</svg>
